Papirus/24x24/apps/gnome-firmware.svg

<svg width="24" height="24" version="1.1" xmlns="http://www.w3.org/2000/svg">
 <rect x="2" y="3.5" width="20" height="18" rx="1.8181819" ry="1.8947369" style="opacity:.2"/>
 <rect x="2" y="3.0001221" width="20" height="17.999878" rx="1.8181819" ry="1.894724" style="fill:#4bae4f"/>
 <rect x="8" y="8.5" width="8" height="8" rx=".889" ry=".889" style="opacity:.2"/>
 <path transform="translate(0,-2.85e-5)" d="m10 4.500061v4.999939h-4v-2.5c0-0.277-0.223-0.5-0.5-0.5h-2c-0.277 0-0.5 0.223-0.5 0.5s0.223 0.5 0.5 0.5h1.5v2.5c0 0.277 0.223 0.5 0.5 0.5h4v1h-6c-0.2963025 0-0.5 0.239912-0.5 0.499939 0 0.264011 0.223 0.500061 0.5 0.500061h6v1h-6c-0.277 0-0.5 0.235924-0.5 0.499939v3.023503c0 0.264012 0.223 0.476558 0.5 0.476558s0.5-0.212547 0.5-0.476562v-2.523438h5v6h1v-5.5h1v5.5h1v-5.5h1v5.5h1v-5.5l2 2.9e-5v0.500061l2-2.9e-5v2.5c0 0.277 0.223 0.5 0.5 0.5h2c0.277 0 0.5-0.223 0.5-0.5s-0.223-0.5-0.5-0.5h-1.5v-2.5c0-0.277-0.223-0.5-0.5-0.5h-4v-1h6c0.277 0 0.5-0.212547 0.5-0.476562v-0.04688c0-0.264011-0.223-0.476558-0.5-0.476558h-6v-1h6c0.06925 0 0.135468-0.01306 0.195312-0.03711 0.179581-0.072152 0.304688-0.241441 0.304688-0.439452v-3.04688c2.6e-5 -0.264015-0.223-0.476562-0.5-0.476562s-0.49997 0.212547-0.5 0.4765625v2.5234375h-5v-6h-1v6h-1v-6h-1v6h-1v-6z" style="opacity:.2"/>
 <rect x="8" y="8" width="8" height="8" rx=".889" ry=".889" style="fill:#7ea193"/>
 <path d="m10 4v4h1v-4zm2 0v4h1v-4h-0.5zm2 0v4h1v-4zm6.5 2.9997798c-0.277 0-0.49997 0.212547-0.5 0.4765625l-2.9e-4 2.5236577h-4v0.999995h4.5c0.06925 0 0.135465-0.01306 0.19531-0.03711 0.17958-0.07215 0.30469-0.241441 0.30469-0.439452v-0.04687l2.9e-4 -3.0002207c2.6e-5 -0.2640155-0.223-0.4765625-0.5-0.4765625zm-17.00029-0.9997798c-0.277 0-0.5 0.223-0.5 0.5s0.223 0.5 0.5 0.5h1.50029v2.5c0 0.277 0.223 0.5 0.5 0.5h2.49971v-1h-1.99971v-2.5c0-0.277-0.223-0.5-0.5-0.5zm0 5c-0.277 0-0.5 0.235924-0.5 0.499939 0 0.25 0.2124227 0.500056 0.5 0.500056h4.5v-0.999995zm12.5 1v0.999995h4.5c0.277 0 0.5-0.212547 0.5-0.476563v-0.04687c0-0.264015-0.223-0.476562-0.5-0.476562zm-12.5 1c-0.277 0-0.5 0.235924-0.5 0.499939v3.02384c0 0.264017 0.223 0.476563 0.5 0.476563s0.5-0.212547 0.5-0.476563v-2.523784h4v-0.999995zm12.5 1v1h2.00029v2.5c0 0.277 0.223 0.5 0.5 0.5h1.99971c0.277 0 0.5-0.223 0.5-0.5s-0.223-0.5-0.5-0.5h-1.49971v-2.5c0-0.277-0.223-0.5-0.5-0.5zm-6.99971 2v4h1v-4zm2 0v4h1v-4zm2 0v4h1v-4z" style="fill:#347937"/>
 <path d="m10 7-1.45e-4 2h-3v1h2.000145v1h-2.000145v1h2.000145v1h-2.000145v1h2l1.45e-4 3.000061h1v-2.000061h1v2.000061h1v-2.000061h1v2.000061h1v-2.000061h3v-1h-2v-1h2v-1h-2v-1h2v-1h-2v-3h-1v2.000061h-1v-2.000061h-1v2.000061h-1v-2.000061z" style="fill:#fbd14e"/>
 <rect x="9" y="9.5" width="6" height="6" style="opacity:.2"/>
 <rect x="9" y="9.000061" width="6" height="6" style="fill:#414141"/>
 <circle cx="20.5" cy="7.500061" r=".5" style="fill:#fbd14e"/>
 <circle cx="20.5" cy="17.500061" r=".5" style="fill:#fbd14e"/>
 <circle cx="3.5" cy="11.5" r=".5" style="fill:#fbd14e"/>
 <circle cx="20.5" cy="12.500061" r=".5" style="fill:#fbd14e"/>
 <circle cx="3.5" cy="6.5" r=".5" style="fill:#fbd14e"/>
 <circle cx="3.5" cy="16.5" r=".5" style="fill:#fbd14e"/>
 <path d="m3.818182 3c-1.0072727 0-1.8181818 0.892-1.8181818 2v0.5c0-1.108 0.8109091-2 1.8181818-2h16.363636c1.007273 0 1.818182 0.892 1.818182 2v-0.5c0-1.108-0.810909-2-1.818182-2z" style="fill:#ffffff;opacity:.2"/>
 <rect x="9" y="9" width="6" height=".5" rx="0" ry=".5" style="fill:#ffffff;opacity:.2"/>
</svg>

<svg xmlns="http://www.w3.org/2000/svg" width="24" height="24" version="1.1">
 <rect style="opacity:0.2" width="20" height="18" x="2" y="3.5" rx="2" ry="2"/>
 <rect style="fill:#4bae4f" width="20" height="18" x="2" y="3" rx="2" ry="2"/>
 <rect style="opacity:0.2" width="8" height="8" x="8" y="8.5" rx="1" ry="1"/>
 <rect style="fill:#7ea193" width="8" height="8" x="8" y="8" rx="1" ry="1"/>
 <path style="opacity:0.1" d="M 10,4.5 V 8.5 H 11 V 4.5 Z M 12,4.5 V 8.5 H 13 V 4.5 H 12.5 Z M 14,4.5 V 8.5 H 15 V 4.5 Z M 20,8 V 10.5 H 16 V 11.5 H 20.5 C 21,11.5 21,11 21,11 V 8 C 21,8 21,7.5 20.5,7.5 20,7.5 20,8 20,8 Z M 3.5,6.5 C 3.5,6.5 3,6.5 3,7 3,7.5 3.5,7.5 3.5,7.5 H 5 V 10 C 5,10 5,10.5 5.5,10.5 H 8 V 9.5 H 6 V 7 C 6,6.5 5.5,6.5 5.5,6.5 Z M 3.5,11.5 C 3.5,11.5 3,11.5 3,12 3,12.5 3.5,12.5 3.5,12.5 H 8 V 11.5 Z M 16,12.5 V 13.5 H 20.5 C 20.5,13.5 21,13.5 21,13 21,12.5 20.5,12.5 20.5,12.5 Z M 3.5,13.5 C 3,13.5 3,14 3,14 V 17 C 3,17 3,17.5 3.5,17.5 4,17.5 4,17 4,17 V 14.5 H 8 V 13.5 Z M 16,14.5 V 15.5 H 18 V 18 C 18,18.5 18.5,18.5 18.5,18.5 H 20.5 C 20.5,18.5 21,18.5 21,18 21,17.5 20.5,17.5 20.5,17.5 H 19 V 15 C 19,15 19,14.5 18.5,14.5 Z M 9,16.5 V 20.5 H 10 V 16.5 Z M 11,16.5 V 20.5 H 12 V 16.5 Z M 13,16.5 V 20.5 H 14 V 16.5 Z"/>
 <path style="fill:#347937" d="M 10,4 V 8 H 11 V 4 Z M 12,4 V 8 H 13 V 4 H 12.5 Z M 14,4 V 8 H 15 V 4 Z M 20,7.5 V 10 H 16 V 11 H 20.5 C 21,11 21,10.5 21,10.5 V 7.5 Z M 3.5,6 V 7 H 5 V 9.5 C 5,9.5 5,10 5.5,10 H 8 V 9 H 6 V 6.5 C 6,6 5.5,6 5.5,6 Z M 3.5,11 V 12 H 8 V 11 Z M 16,12 V 13 H 20.5 V 12 Z M 3.5,13 C 3,13 3,13.5 3,13.5 V 16.5 H 4 V 14 H 8 V 13 Z M 16,14 V 15 H 18 V 17.5 C 18,18 18.5,18 18.5,18 H 20.5 V 17 H 19 V 14.5 C 19,14.5 19,14 18.5,14 Z M 9,16 V 20 H 10 V 16 Z M 11,16 V 20 H 12 V 16 Z M 13,16 V 20 H 14 V 16 Z"/>
 <path style="fill:#fbd14e" d="M 10,7 9.9999,9 H 6.9999 V 10 H 9 V 11 H 6.9999 V 12 H 9 V 13 H 6.9999 V 14 H 8.9999 L 9,17 H 10 V 15 H 11 V 17 H 12 V 15 H 13 V 17 H 14 V 15 H 17 V 14 H 15 V 13 H 17 V 12 H 15 V 11 H 17 V 10 H 15 V 7 H 14 V 9.0001 H 13 V 7 H 12 V 9.0001 H 11 V 7 Z"/>
 <rect style="opacity:0.2" width="6" height="6" x="9" y="9.5"/>
 <rect style="fill:#414141" width="6" height="6" x="9" y="9"/>
 <circle style="fill:#fbd14e" cx="20.5" cy="7.5" r=".5"/>
 <circle style="fill:#fbd14e" cx="20.5" cy="17.5" r=".5"/>
 <circle style="fill:#fbd14e" cx="3.5" cy="11.5" r=".5"/>
 <circle style="fill:#fbd14e" cx="20.5" cy="12.5" r=".5"/>
 <circle style="fill:#fbd14e" cx="3.5" cy="6.5" r=".5"/>
 <circle style="fill:#fbd14e" cx="3.5" cy="16.5" r=".5"/>
 <path style="opacity:0.2;fill:#ffffff" d="M 4,3 C 2.892,3 2,3.892 2,5 V 5.5 C 2,4.392 2.892,3.5 4,3.5 H 20 C 21.108,3.5 22,4.392 22,5.5 V 5 C 22,3.892 21.108,3 20,3 Z"/>
 <rect style="opacity:0.1;fill:#ffffff" width="6" height=".5" x="9" y="9"/>
</svg>
